public/topics/22.svg

<svg width="250" height="250" viewBox="0 0 250 250" fill="none" xmlns="http://www.w3.org/2000/svg">
<rect width="250" height="250" rx="30" fill="#336699"/>
<path d="M58.2 174.2C62.7333 174.467 65.7333 174.6 67.2 174.6C71.7333 174.6 75.7333 174.533 79.2 174.4C82.8 174.267 85.8667 174.133 88.4 174C94.9333 173.6 100.8 173.4 106 173.4C111.067 173.4 114.8 174.733 117.2 177.4C119.6 180.067 120.8 183.6 120.8 188C120.8 190.133 119.4 191.867 116.6 193.2C113.8 194.4 110.933 195 108 195C105.467 195 100.2 194.733 92.2 194.2C82.6 193.4 75.0667 193 69.6 193C66.6667 193 63.2 193.2 59.2 193.6C57.6 193.733 55.6667 193.867 53.4 194C51.1333 194.133 48.6 194.2 45.8 194.2C40.4667 194.2 36.4 193.467 33.6 192C30.8 190.533 29.4 187.867 29.4 184C29.4 180.667 30.7333 177.267 33.4 173.8C36.0667 170.333 39.8 166.2 44.6 161.4L49.4 156.6C51.5333 154.333 55.4667 150.467 61.2 145C70.6667 136.467 78 128.933 83.2 122.4C88.5333 115.867 91.2 109.4 91.2 103C91.2 98.8667 89.2 95.5333 85.2 93C81.3333 90.3333 76.8667 89 71.8 89C64.0667 89 58.4667 90.7333 55 94.2C51.6667 97.5333 50 102.4 50 108.8C50 110.4 49.0667 111.867 47.2 113.2C45.4667 114.4 43.2667 115 40.6 115C36.8667 115 34.2667 113.667 32.8 111C31.3333 108.333 30.6 105.067 30.6 101.2C30.6 95.0667 32.4667 89.6667 36.2 85C39.9333 80.2 45 76.4667 51.4 73.8C57.9333 71.1333 65.1333 69.8 73 69.8C78.6 69.8 84.4 71.2 90.4 74C96.5333 76.6667 101.6 80.3333 105.6 85C109.733 89.5333 111.8 94.5333 111.8 100C111.8 108.267 109.733 116.133 105.6 123.6C101.467 131.067 96.6 137.733 91 143.6C85.5333 149.333 78.4 156.133 69.6 164C65.3333 167.6 61.5333 171 58.2 174.2ZM163.473 174.2C168.007 174.467 171.007 174.6 172.473 174.6C177.007 174.6 181.007 174.533 184.473 174.4C188.073 174.267 191.14 174.133 193.673 174C200.207 173.6 206.073 173.4 211.273 173.4C216.34 173.4 220.073 174.733 222.473 177.4C224.873 180.067 226.073 183.6 226.073 188C226.073 190.133 224.673 191.867 221.873 193.2C219.073 194.4 216.207 195 213.273 195C210.74 195 205.473 194.733 197.473 194.2C187.873 193.4 180.34 193 174.873 193C171.94 193 168.473 193.2 164.473 193.6C162.873 193.733 160.94 193.867 158.673 194C156.407 194.133 153.873 194.2 151.073 194.2C145.74 194.2 141.673 193.467 138.873 192C136.073 190.533 134.673 187.867 134.673 184C134.673 180.667 136.007 177.267 138.673 173.8C141.34 170.333 145.073 166.2 149.873 161.4L154.673 156.6C156.807 154.333 160.74 150.467 166.473 145C175.94 136.467 183.273 128.933 188.473 122.4C193.807 115.867 196.473 109.4 196.473 103C196.473 98.8667 194.473 95.5333 190.473 93C186.607 90.3333 182.14 89 177.073 89C169.34 89 163.74 90.7333 160.273 94.2C156.94 97.5333 155.273 102.4 155.273 108.8C155.273 110.4 154.34 111.867 152.473 113.2C150.74 114.4 148.54 115 145.873 115C142.14 115 139.54 113.667 138.073 111C136.607 108.333 135.873 105.067 135.873 101.2C135.873 95.0667 137.74 89.6667 141.473 85C145.207 80.2 150.273 76.4667 156.673 73.8C163.207 71.1333 170.407 69.8 178.273 69.8C183.873 69.8 189.673 71.2 195.673 74C201.807 76.6667 206.873 80.3333 210.873 85C215.007 89.5333 217.073 94.5333 217.073 100C217.073 108.267 215.007 116.133 210.873 123.6C206.74 131.067 201.873 137.733 196.273 143.6C190.807 149.333 183.673 156.133 174.873 164C170.607 167.6 166.807 171 163.473 174.2Z" fill="white"/>
</svg>

<svg xmlns="http://www.w3.org/2000/svg" width="250" height="250" fill="none" viewBox="0 0 250 250"><rect width="250" height="250" fill="#369" rx="30"/><path fill="#fff" d="M58.2 174.2q6.8.4 9 .4 6.8 0 12-.2 5.4-.2 9.2-.4 9.8-.6 17.6-.6 7.6 0 11.2 4t3.6 10.6q0 3.2-4.2 5.2-4.2 1.8-8.6 1.8-3.8 0-15.8-.8-14.4-1.2-22.6-1.2-4.4 0-10.4.6-2.4.2-5.8.4t-7.6.2q-8 0-12.2-2.2t-4.2-8q0-5 4-10.2t11.2-12.4l4.8-4.8q3.2-3.4 11.8-11.6 14.2-12.8 22-22.6 8-9.8 8-19.4 0-6.2-6-10-5.8-4-13.4-4-11.6 0-16.8 5.2-5 5-5 14.6 0 2.4-2.8 4.4-2.6 1.8-6.6 1.8-5.6 0-7.8-4t-2.2-9.8q0-9.2 5.6-16.2 5.6-7.2 15.2-11.2 9.8-4 21.6-4 8.4 0 17.4 4.2 9.2 4 15.2 11 6.2 6.8 6.2 15 0 12.4-6.2 23.6t-14.6 20q-8.2 8.6-21.4 20.4-6.4 5.4-11.4 10.2m105.273 0q6.801.4 9 .4 6.801 0 12-.2 5.4-.2 9.2-.4 9.8-.6 17.6-.6 7.6 0 11.2 4t3.6 10.6q0 3.2-4.2 5.2-4.2 1.8-8.6 1.8-3.8 0-15.8-.8-14.4-1.2-22.6-1.2-4.4 0-10.4.6-2.4.2-5.8.4t-7.6.2q-8 0-12.2-2.2t-4.2-8q0-5 4-10.2t11.2-12.4l4.8-4.8q3.2-3.4 11.8-11.6 14.2-12.8 22-22.6 8-9.8 8-19.4 0-6.2-6-10-5.8-4-13.4-4-11.6 0-16.8 5.2-5 5-5 14.6 0 2.4-2.8 4.4-2.6 1.8-6.6 1.8-5.6 0-7.8-4t-2.2-9.8q0-9.2 5.6-16.2 5.6-7.2 15.2-11.2 9.801-4 21.6-4 8.4 0 17.4 4.2 9.2 4 15.2 11 6.2 6.8 6.2 15 0 12.4-6.2 23.6t-14.6 20q-8.2 8.6-21.4 20.4-6.399 5.4-11.4 10.2"/></svg>
